X: 34616
T: Road North, The
R: waltz
M: 3/4
K: Amixolydian
M:6/8
|:e>AA e>ef|g>fg e>dB|e>AA e>ef|g>ed B2 A|
e>AA e>ef|g>fg e>dB|AA/>(A/a/)>(A/ g>)ed|B2 A B>AG:|
|:c>AA e2d|B2 A B>AG|c>AA e>AA|g2e a>ge|
c>AA e2d|B2 A B>AG|c>Ac e>ce|g>eg a>ge:|
|:e2a a2 g|e>de f>ed|e2a a2 g|e>de f2e|
e2a a2 g|e>de f>ed|{e}g3 {e}g2e|d>BG B2 A:|

